assets/layers/charging_station/Tesla-hpwc-model-s.svg

<?xml version="1.0" encoding="UTF-8" standalone="yes"?>
<svg xmlns="http://www.w3.org/2000/svg" xmlns:xlink="http://www.w3.org/1999/xlink" width="374px" height="314px" viewBox="0 0 374 314" version="1.1">
  <g id="surface1">
    <path style="fill-rule:evenodd;fill:rgb(0%,0%,0%);fill-opacity:1;stroke-width:1;stroke-linecap:butt;stroke-linejoin:miter;stroke:rgb(0%,0%,0%);stroke-opacity:1;stroke-miterlimit:4;" d="M 184.859585 610.923762 C 190.197805 601.515266 205.474704 616.428734 217.184006 613.958082 C 228.893309 611.482161 238.579042 601.225531 251.526727 594.761799 C 287.835051 575.755161 332.985954 566.588989 370.72764 566.478363 C 421.511866 568.395884 444.998978 573.895587 486.893198 595.773239 C 497.985944 601.557409 509.210433 614.226745 518.205833 615.975693 C 527.206504 617.724641 548.754361 599.302742 555.583909 609.917591 C 564.126114 623.187469 529.319659 649.31106 529.319659 649.31106 L 476.791157 679.617375 L 409.112231 698.80839 L 329.307694 699.819829 L 270.719023 684.669306 L 215.160436 652.340111 C 215.160436 652.340111 176.412235 625.800355 184.859585 610.923762 Z M 184.859585 610.923762 " transform="matrix(0.741264,0,0,0.741517,-83.553239,-218.557395)"/>
    <path style="fill:none;stroke-width:30;stroke-linecap:butt;stroke-linejoin:miter;stroke:rgb(0%,0%,0%);stroke-opacity:1;stroke-miterlimit:4;" d="M 313.366812 418.671202 C 313.366812 466.193064 276.199524 504.722595 230.34775 504.722595 C 184.501245 504.722595 147.333958 466.193064 147.333958 418.671202 C 147.333958 371.14934 184.501245 332.625077 230.34775 332.625077 C 276.199524 332.625077 313.366812 371.14934 313.366812 418.671202 Z M 313.366812 418.671202 " transform="matrix(0.741264,0,0,0.741517,-83.553239,-218.557395)"/>
    <path style="fill:none;stroke-width:30;stroke-linecap:butt;stroke-linejoin:miter;stroke:rgb(0%,0%,0%);stroke-opacity:1;stroke-miterlimit:4;" d="M 582.069488 418.671202 C 582.069488 466.193064 544.9022 504.722595 499.050426 504.722595 C 453.203921 504.722595 416.031364 466.193064 416.031364 418.671202 C 416.031364 371.14934 453.203921 332.625077 499.050426 332.625077 C 544.9022 332.625077 582.069488 371.14934 582.069488 418.671202 Z M 582.069488 418.671202 " transform="matrix(0.741264,0,0,0.741517,-83.553239,-218.557395)"/>
    <path style="fill:none;stroke-width:35;stroke-linecap:butt;stroke-linejoin:miter;stroke:rgb(0%,0%,0%);stroke-opacity:1;stroke-miterlimit:4;" d="M 279.308655 316.910886 C 279.308655 316.910886 246.220126 321.267452 230.316132 326.061255 C 209.669395 332.28793 187.763197 338.061565 170.757833 351.31564 C 159.754672 359.891805 151.755247 372.223995 145.500098 384.69315 C 139.534782 396.588102 136.947353 409.979142 134.391542 423.038303 C 131.914777 435.665496 130.491954 448.556084 130.349672 461.425601 C 130.21266 473.583949 131.572246 485.7581 133.358678 497.790018 C 135.234696 510.396139 137.695652 522.97592 141.42134 535.165876 C 145.658189 549.036296 151.312591 562.490551 157.58355 575.570784 C 164.102185 589.167273 171.089825 602.663672 179.805931 614.964253 C 188.08465 626.648489 197.4542 637.711111 208.10956 647.272376 C 220.345834 658.250711 234.02074 667.78037 248.496642 675.576884 C 262.208436 682.957233 276.889857 688.736136 291.934888 692.750287 C 307.717679 696.959351 324.127566 698.713567 340.421519 699.819829 C 358.728503 701.063057 377.209387 701.068325 395.474213 699.314109 C 413.027628 697.628377 430.649549 694.920668 447.496822 689.715968 C 462.626168 685.048595 477.170577 678.326736 490.935068 670.503882 C 502.064702 664.177116 512.809647 656.928465 522.247703 648.278548 C 535.279704 636.341453 546.657015 622.507908 556.595694 607.894711 C 566.255078 593.69768 574.31247 578.320636 580.836375 562.437872 C 587.112603 547.166186 591.749951 531.156992 594.980285 514.963421 C 597.82593 500.682104 599.238213 486.079443 599.528048 471.524194 C 599.886388 453.307743 599.496429 434.859505 595.99207 416.974933 C 593.130616 402.372273 590.047833 387.047908 581.84816 374.631432 C 573.153133 361.47218 559.97358 351.352515 546.451496 343.234658 C 533.219246 335.290642 517.921269 331.234347 503.055408 327.093766 C 490.840213 323.690693 478.166553 322.205141 465.682602 320.003153 L 448.508607 316.968833 " transform="matrix(0.741264,0,0,0.741517,-83.553239,-218.557395)"/>
    <path style="fill:none;stroke-width:20.263767;stroke-linecap:butt;stroke-linejoin:miter;stroke:rgb(0%,0%,0%);stroke-opacity:1;stroke-miterlimit:4;" d="M 248.317472 315.873107 C 248.317472 315.873107 272.436949 310.800105 283.034342 308.998478 C 293.631736 307.196851 312.939965 306.685863 333.117697 305.879872 C 343.878451 305.453171 354.649745 304.889504 365.421039 304.8737 C 377.235736 304.857897 389.045163 305.432099 400.84932 305.879872 C 408.190031 306.159072 415.55182 306.174875 422.855643 306.928187 L 451.960269 309.909827 " transform="matrix(0.741264,0,0,0.741517,-83.553239,-218.557395)"/>
    <path style="fill:none;stroke-width:28.588478;stroke-linecap:butt;stroke-linejoin:miter;stroke:rgb(0%,0%,0%);stroke-opacity:1;stroke-miterlimit:4;" d="M 580.583429 560.709996 C 580.583429 560.709996 586.717375 531.267619 584.467207 516.722905 C 583.49231 510.401407 581.732226 503.231775 577.089609 499.001639 C 572.84222 495.140257 568.199603 491.152445 559.06719 490.156809 C 549.929507 489.155906 532.760781 498.216719 532.760781 498.216719 " transform="matrix(0.741264,0,0,0.741517,-83.553239,-218.557395)"/>
    <path style="fill:none;stroke-width:28.05995;stroke-linecap:butt;stroke-linejoin:miter;stroke:rgb(0%,0%,0%);stroke-opacity:1;stroke-miterlimit:4;" d="M 149.557777 560.957588 C 149.557777 560.957588 143.181424 530.851453 145.890056 516.096023 C 147.123169 509.363628 149.478731 502.309889 154.711556 497.55823 C 154.711556 497.55823 164.74509 491.779327 170.141277 491.273607 C 175.542733 490.767888 188.806601 494.144621 188.806601 494.144621 " transform="matrix(0.741264,0,0,0.741517,-83.553239,-218.557395)"/>
    <path style="fill:none;stroke-width:20.169273;stroke-linecap:butt;stroke-linejoin:miter;stroke:rgb(0%,0%,0%);stroke-opacity:1;stroke-miterlimit:4;" d="M 441.441921 349.751069 C 441.441921 349.751069 453.525374 333.80509 448.945993 321.241113 C 444.40877 308.808833 428.847307 307.433907 428.847307 307.433907 " transform="matrix(0.741264,0,0,0.741517,-83.553239,-218.557395)"/>
    <path style="fill:none;stroke-width:20;stroke-linecap:round;stroke-linejoin:miter;stroke:rgb(0%,0%,0%);stroke-opacity:1;stroke-miterlimit:4;" d="M 135.361169 468.495143 L 153.54168 468.495143 C 158.563717 468.495143 162.631935 472.561973 162.631935 477.587564 C 162.631935 482.607887 158.563717 486.674718 153.54168 486.674718 L 135.361169 486.674718 C 130.339133 486.674718 126.270914 482.607887 126.270914 477.587564 C 126.270914 472.561973 130.339133 468.495143 135.361169 468.495143 Z M 135.361169 468.495143 " transform="matrix(0.741264,0,0,0.741517,-83.553239,-218.557395)"/>
    <path style="fill:none;stroke-width:20;stroke-linecap:round;stroke-linejoin:miter;stroke:rgb(0%,0%,0%);stroke-opacity:1;stroke-miterlimit:4;" d="M 569.727819 472.535633 L 587.90833 472.535633 C 592.930367 472.535633 596.998585 476.602464 596.998585 481.628055 C 596.998585 486.648378 592.930367 490.715208 587.90833 490.715208 L 569.727819 490.715208 C 564.705783 490.715208 560.632294 486.648378 560.632294 481.628055 C 560.632294 476.602464 564.705783 472.535633 569.727819 472.535633 Z M 569.727819 472.535633 " transform="matrix(0.741264,0,0,0.741517,-83.553239,-218.557395)"/>
    <path style="fill-rule:evenodd;fill:rgb(100%,100%,100%);fill-opacity:1;stroke-width:14.232188;stroke-linecap:butt;stroke-linejoin:miter;stroke:rgb(0%,0%,0%);stroke-opacity:1;stroke-miterlimit:4;" d="M 497.269263 625.189276 C 497.269263 638.011382 486.650791 648.404978 473.550284 648.404978 C 460.455046 648.404978 449.831305 638.011382 449.831305 625.189276 C 449.831305 612.367171 460.455046 601.978843 473.550284 601.978843 C 486.650791 601.978843 497.269263 612.367171 497.269263 625.189276 Z M 497.269263 625.189276 " transform="matrix(0.741264,0,0,0.741517,-83.553239,-218.557395)"/>
    <path style="fill-rule:evenodd;fill:rgb(100%,100%,100%);fill-opacity:1;stroke-width:8.450236;stroke-linecap:butt;stroke-linejoin:miter;stroke:rgb(0%,0%,0%);stroke-opacity:1;stroke-miterlimit:4;" d="M 406.55115 627.085726 C 406.55115 647.430414 389.83035 663.918988 369.209962 663.918988 C 348.589575 663.918988 331.874044 647.430414 331.874044 627.085726 C 331.874044 606.746306 348.589575 590.252464 369.209962 590.252464 C 389.83035 590.252464 406.55115 606.746306 406.55115 627.085726 Z M 406.55115 627.085726 " transform="matrix(0.741264,0,0,0.741517,-83.553239,-218.557395)"/>
    <path style="fill-rule:evenodd;fill:rgb(100%,100%,100%);fill-opacity:1;stroke-width:14.232188;stroke-linecap:butt;stroke-linejoin:miter;stroke:rgb(0%,0%,0%);stroke-opacity:1;stroke-miterlimit:4;" d="M 284.335962 625.068114 C 284.335962 637.89022 273.717489 648.283816 260.616982 648.283816 C 247.521745 648.283816 236.903273 637.89022 236.903273 625.068114 C 236.903273 612.246009 247.521745 601.852413 260.616982 601.852413 C 273.717489 601.852413 284.335962 612.246009 284.335962 625.068114 Z M 284.335962 625.068114 " transform="matrix(0.741264,0,0,0.741517,-83.553239,-218.557395)"/>
    <path style="fill:none;stroke-width:20.169273;stroke-linecap:butt;stroke-linejoin:miter;stroke:rgb(0%,0%,0%);stroke-opacity:1;stroke-miterlimit:4;" d="M 287.060403 349.751069 C 287.060403 349.751069 274.976951 333.80509 279.561601 321.241113 C 284.093555 308.808833 299.655018 307.433907 299.655018 307.433907 " transform="matrix(0.741264,0,0,0.741517,-83.553239,-218.557395)"/>
  </g>
</svg>

<?xml version="1.0" encoding="UTF-8" standalone="no"?>
<!-- Created with Inkscape (http://www.inkscape.org/) -->

<svg
        xmlns:dc="http://purl.org/dc/elements/1.1/"
        xmlns:cc="http://creativecommons.org/ns#"
        xmlns:rdf="http://www.w3.org/1999/02/22-rdf-syntax-ns#"
        xmlns:sodipodi="http://sodipodi.sourceforge.net/DTD/sodipodi-0.dtd"
        xmlns:inkscape="http://www.inkscape.org/namespaces/inkscape"
        xmlns="http://www.w3.org/2000/svg"
        width="142.32359mm"
        height="119.50872mm"
        viewBox="0 0 504.2962 423.4561"
        id="svg2"
        version="1.1"
        inkscape:version="0.92.5 (2060ec1f9f, 2020-04-08)"
        sodipodi:docname="Tesla-hpwc-model-s.svg"
        inkscape:export-filename="/Users/sss/Desktop/EV Plugs/tesla-hpwc-model-s.png"
        inkscape:export-xdpi="600.09003"
        inkscape:export-ydpi="600.09003">
    <defs
            id="defs4"/>
    <sodipodi:namedview
            id="base"
            pagecolor="#ffffff"
            bordercolor="#666666"
            borderopacity="1.0"
            inkscape:pageopacity="0.0"
            inkscape:pageshadow="2"
            inkscape:zoom="0.98994949"
            inkscape:cx="-95.934435"
            inkscape:cy="240.84328"
            inkscape:document-units="px"
            inkscape:current-layer="layer1"
            showgrid="true"
            inkscape:snap-grids="false"
            inkscape:window-width="1203"
            inkscape:window-height="851"
            inkscape:window-x="6"
            inkscape:window-y="25"
            inkscape:window-maximized="0">
        <inkscape:grid
                type="xygrid"
                id="grid4198"
                originx="-112.84082"
                originy="-334.16263"/>
    </sodipodi:namedview>
    <metadata
            id="metadata7">
        <rdf:RDF>
            <cc:Work
                    rdf:about="">
                <dc:format>image/svg+xml</dc:format>
                <dc:type
                        rdf:resource="http://purl.org/dc/dcmitype/StillImage"/>
                <dc:title/>
            </cc:Work>
        </rdf:RDF>
    </metadata>
    <g
            inkscape:groupmode="layer"
            id="layer2"
            inkscape:label="Layer 2"
            transform="translate(-112.84082,-294.7435)">
        <path
                style="fill:#000000;fill-opacity:1;fill-rule:evenodd;stroke:#000000;stroke-width:1px;stroke-linecap:butt;stroke-linejoin:miter;stroke-opacity:1"
                d="m 184.85792,610.92554 c 5.34247,-9.4116 20.61454,5.50266 32.32488,3.03046 11.71034,-2.4722 21.39574,-12.73143 34.34519,-19.1929 36.3074,-19.01022 81.45928,-28.17606 119.198,-28.28426 50.78584,1.91459 74.27116,7.41743 116.16754,29.29441 11.09057,5.78459 22.31528,18.45539 31.31473,20.20305 8.99945,1.74766 30.5459,-16.67466 37.37564,-6.06091 8.54045,13.27229 -26.26396,39.39595 -26.26396,39.39595 l -52.52794,30.30457 -67.68022,19.1929 -79.80205,1.01016 -58.58885,-15.15229 -55.55839,-32.32488 c 0,0 -38.74931,-26.53954 -30.30457,-41.41626 z"
                id="path4164"
                inkscape:connector-curvature="0"
                sodipodi:nodetypes="azccczacccccca"/>
    </g>
    <g
            inkscape:label="Layer 1"
            inkscape:groupmode="layer"
            id="layer1"
            transform="translate(-112.84082,-294.7435)">
        <ellipse
                style="fill:none;fill-rule:evenodd;stroke:#000000;stroke-width:30;stroke-linecap:butt;stroke-linejoin:miter;stroke-miterlimit:4;stroke-dasharray:none;stroke-opacity:1"
                id="path4200"
                cx="230.35025"
                cy="418.67181"
                rx="83.017761"
                ry="86.048218"/>
        <ellipse
                ry="86.048218"
                rx="83.017761"
                cy="418.672"
                cx="499.05084"
                id="ellipse4202"
                style="fill:none;fill-rule:evenodd;stroke:#000000;stroke-width:30;stroke-linecap:butt;stroke-linejoin:miter;stroke-miterlimit:4;stroke-dasharray:none;stroke-opacity:1"/>
        <path
                style="fill:none;fill-rule:evenodd;stroke:#000000;stroke-width:35;stroke-linecap:butt;stroke-linejoin:miter;stroke-miterlimit:4;stroke-dasharray:none;stroke-opacity:1"
                d="m 279.30718,316.91023 c 0,0 -33.08645,4.35616 -48.9924,9.15229 -20.64561,6.22527 -42.55026,11.99792 -59.55839,25.25382 -11.00372,8.57614 -18.99908,20.90526 -25.25381,33.37564 -5.96623,11.89519 -8.55315,25.28589 -11.11168,38.34519 -2.47362,12.62593 -3.89722,25.52064 -4.04061,38.3858 -0.13556,12.16253 1.22253,24.33428 3.01015,36.36549 1.87312,12.60661 4.3376,25.18662 8.06092,37.37564 4.23784,13.87341 9.89121,27.32549 16.16244,40.4061 6.5181,13.59554 13.50529,27.09474 22.22335,39.39595 8.27833,11.68075 17.64849,22.74329 28.30458,32.30458 12.23566,10.97857 25.91139,20.51153 40.3858,28.30458 13.70868,7.38077 28.39314,13.16022 43.43656,17.17259 15.7817,4.20928 32.19147,5.9642 48.48732,7.07107 18.30969,1.24366 36.78558,1.25025 55.05331,-0.50508 17.55268,-1.68662 35.17398,-4.3949 52.02286,-9.59645 15.12757,-4.67015 29.67229,-11.39026 43.43656,-19.2132 11.12797,-6.3246 21.87658,-13.57735 31.31473,-22.22336 13.03065,-11.93698 24.40568,-25.77431 34.34518,-40.3858 9.65878,-14.1988 17.71912,-29.57201 24.24366,-45.45686 6.2739,-15.27462 10.91192,-31.2833 14.14214,-47.47717 2.84779,-14.27667 4.25784,-28.88148 4.54568,-43.43656 0.36027,-18.21734 -0.0313,-36.66748 -3.53553,-54.54824 -2.86199,-14.60363 -5.93988,-29.92825 -14.14213,-42.34518 -8.69267,-13.15935 -21.87573,-23.27593 -35.39595,-31.39595 -13.23084,-7.94622 -28.52892,-11.9986 -43.39595,-16.14214 -12.21526,-3.40448 -24.8878,-4.88763 -37.37565,-7.09137 l -17.17259,-3.03046"
                id="path4206"
                inkscape:connector-curvature="0"
                sodipodi:nodetypes="caaaaaaaaaaaaaaaaaaaaaaaaasc"
                inkscape:export-xdpi="600.09003"
                inkscape:export-ydpi="600.09003"/>
        <path
                style="fill:none;fill-rule:evenodd;stroke:#000000;stroke-width:20.26376724;stroke-linecap:butt;stroke-linejoin:miter;stroke-miterlimit:4;stroke-dasharray:none;stroke-opacity:1"
                d="m 248.31561,315.87298 c 0,0 24.12228,-5.07483 34.71983,-6.87468 10.59756,-1.79985 29.90209,-2.31504 50.08267,-3.11732 10.76112,-0.42781 21.52943,-0.99049 32.30252,-1.00526 11.81462,-0.0162 23.62307,0.55736 35.42857,1.00526 7.33923,0.27845 14.70208,0.29618 22.00802,1.04567 l 29.10539,2.9858"
                id="path4208"
                inkscape:connector-curvature="0"
                sodipodi:nodetypes="cssaasc"/>
        <path
                sodipodi:nodetypes="cassc"
                inkscape:connector-curvature="0"
                id="path4214"
                d="m 580.58137,560.70912 c 0,0 6.13362,-29.43998 3.88722,-43.98705 -0.97642,-6.32302 -2.73509,-13.49274 -7.37831,-17.7191 -4.24591,-3.8647 -8.88817,-7.84975 -18.02479,-8.84831 -9.13661,-0.99857 -26.30313,8.06042 -26.30313,8.06042"
                style="fill:none;fill-rule:evenodd;stroke:#000000;stroke-width:28.58847809;stroke-linecap:butt;stroke-linejoin:miter;stroke-miterlimit:4;stroke-dasharray:none;stroke-opacity:1"/>
        <path
                style="fill:none;fill-rule:evenodd;stroke:#000000;stroke-width:28.05994987;stroke-linecap:butt;stroke-linejoin:miter;stroke-miterlimit:4;stroke-dasharray:none;stroke-opacity:1"
                d="m 149.56008,560.95966 c 0,0 -6.37621,-30.10596 -3.67151,-44.86526 1.23348,-6.73102 3.5893,-13.78529 8.82103,-18.5376 0,0 10.0336,-5.77951 15.4336,-6.28404 5.4,-0.50453 18.66161,2.87436 18.66161,2.87436"
                id="path4216"
                inkscape:connector-curvature="0"
                sodipodi:nodetypes="cassc"/>
        <path
                sodipodi:nodetypes="csc"
                inkscape:connector-curvature="0"
                id="path4220"
                d="m 441.44301,349.74977 c 0,0 12.08212,-15.94331 7.5006,-28.5062 -4.53524,-12.43598 -20.09538,-13.81125 -20.09538,-13.81125"
                style="fill:none;fill-rule:evenodd;stroke:#000000;stroke-width:20.16927338;stroke-linecap:butt;stroke-linejoin:miter;stroke-miterlimit:4;stroke-dasharray:none;stroke-opacity:1"/>
        <rect
                style="opacity:1;fill:none;fill-opacity:1;stroke:#000000;stroke-width:20;stroke-linecap:round;stroke-linejoin:miter;stroke-miterlimit:4;stroke-dasharray:none;stroke-dashoffset:0;stroke-opacity:1"
                id="rect4224"
                width="36.36549"
                height="18.182745"
                x="126.26907"
                y="468.49402"
                ry="9.0913725"/>
        <rect
                ry="9.0913725"
                y="472.53464"
                x="560.63464"
                height="18.182745"
                width="36.36549"
                id="rect4226"
                style="opacity:1;fill:none;fill-opacity:1;stroke:#000000;stroke-width:20;stroke-linecap:round;stroke-linejoin:miter;stroke-miterlimit:4;stroke-dasharray:none;stroke-dashoffset:0;stroke-opacity:1"/>
        <ellipse
                cy="625.19025"
                cx="473.55237"
                id="ellipse4236"
                style="fill:#ffffff;fill-opacity:1;fill-rule:evenodd;stroke:#000000;stroke-width:14.23218822;stroke-linecap:butt;stroke-linejoin:miter;stroke-miterlimit:4;stroke-dasharray:none;stroke-opacity:1"
                rx="23.71863"
                ry="23.213554"/>
        <ellipse
                style="fill:#ffffff;fill-opacity:1;fill-rule:evenodd;stroke:#000000;stroke-width:8.45023632;stroke-linecap:butt;stroke-linejoin:miter;stroke-miterlimit:4;stroke-dasharray:none;stroke-opacity:1"
                id="ellipse4238"
                cx="369.21078"
                cy="627.08795"
                rx="37.338669"
                ry="36.833595"/>
        <ellipse
                ry="23.213554"
                rx="23.71863"
                style="fill:#ffffff;fill-opacity:1;fill-rule:evenodd;stroke:#000000;stroke-width:14.23218822;stroke-linecap:butt;stroke-linejoin:miter;stroke-miterlimit:4;stroke-dasharray:none;stroke-opacity:1"
                id="ellipse4244"
                cx="260.61938"
                cy="625.06769"/>
        <path
                style="fill:none;fill-rule:evenodd;stroke:#000000;stroke-width:20.16927338;stroke-linecap:butt;stroke-linejoin:miter;stroke-miterlimit:4;stroke-dasharray:none;stroke-opacity:1"
                d="m 287.06118,349.74977 c 0,0 -12.08212,-15.94331 -7.5006,-28.5062 4.53524,-12.43598 20.09538,-13.81125 20.09538,-13.81125"
                id="path4157"
                inkscape:connector-curvature="0"
                sodipodi:nodetypes="csc"/>
    </g>
</svg>
